polaris-icons/icons/newicons/BehaviorMajor.svg

<svg width="20" height="20" viewBox="0 0 20 20" fill="none" xmlns="http://www.w3.org/2000/svg">
<path d="M9.75 2C10.1642 2 10.5 2.33579 10.5 2.75V6.25C10.5 6.66421 10.1642 7 9.75 7C9.33579 7 9 6.66421 9 6.25V2.75C9 2.33579 9.33579 2 9.75 2Z" fill="black"/>
<path d="M15.2803 4.21966C15.5732 4.51255 15.5732 4.98743 15.2803 5.28032L13.2803 7.28032C12.9874 7.57321 12.5126 7.57321 12.2197 7.28032C11.9268 6.98743 11.9268 6.51255 12.2197 6.21966L14.2197 4.21966C14.5126 3.92677 14.9874 3.92677 15.2803 4.21966Z" fill="black"/>
<path d="M7.28031 12.2196C7.57322 12.5125 7.57323 12.9874 7.28034 13.2803L5.2804 15.2804C4.98752 15.5733 4.51265 15.5733 4.21974 15.2804C3.92684 14.9875 3.92683 14.5126 4.21971 14.2197L6.21965 12.2197C6.51254 11.9268 6.98741 11.9268 7.28031 12.2196Z" fill="black"/>
<path d="M6.25 10.5C6.66421 10.5 7 10.1642 7 9.75C7 9.33579 6.66421 9 6.25 9L2.75 9C2.33579 9 2 9.33579 2 9.75C2 10.1642 2.33579 10.5 2.75 10.5L6.25 10.5Z" fill="black"/>
<path d="M7.03034 7.28033C6.73745 7.57322 6.26257 7.57322 5.96968 7.28033L3.96968 5.28033C3.67679 4.98744 3.67679 4.51256 3.96968 4.21967C4.26257 3.92678 4.73745 3.92678 5.03034 4.21967L7.03034 6.21967C7.32323 6.51256 7.32323 6.98744 7.03034 7.28033Z" fill="black"/>
<path d="M9.94415 8.98725C9.67179 8.89112 9.36844 8.95993 9.16421 9.16416C8.95998 9.36839 8.89117 9.67175 8.98729 9.94411L11.1086 15.9545C11.1943 16.1974 11.3987 16.3793 11.65 16.4363C11.9012 16.4933 12.164 16.4174 12.3462 16.2352L13.5836 14.9978L14.9978 16.412C15.2907 16.7049 15.7656 16.7049 16.0585 16.412L16.4121 16.0585C16.7049 15.7656 16.7049 15.2907 16.4121 14.9978L14.9978 13.5836L16.2353 12.3461C16.4174 12.164 16.4933 11.9011 16.4364 11.6499C16.3794 11.3987 16.1975 11.1943 15.9546 11.1086L9.94415 8.98725Z" fill="black"/>
</svg>

<svg viewBox="0 0 20 20" fill="none" xmlns="http://www.w3.org/2000/svg"><path d="M9.75 2a.75.75 0 0 1 .75.75v3.5a.75.75 0 0 1-1.5 0v-3.5a.75.75 0 0 1 .75-.75Z" fill="#000"/><path d="M15.28 4.22a.75.75 0 0 1 0 1.06l-2 2a.75.75 0 1 1-1.06-1.06l2-2a.75.75 0 0 1 1.06 0Z" fill="#000"/><path d="M7.28 12.22a.75.75 0 0 1 0 1.06l-2 2a.75.75 0 1 1-1.06-1.06l2-2a.75.75 0 0 1 1.06 0Z" fill="#000"/><path d="M6.25 10.5a.75.75 0 0 0 0-1.5h-3.5a.75.75 0 0 0 0 1.5h3.5Z" fill="#000"/><path d="M7.03 7.28a.75.75 0 0 1-1.06 0l-2-2a.75.75 0 0 1 1.06-1.06l2 2a.75.75 0 0 1 0 1.06Z" fill="#000"/><path d="M9.944 8.987a.75.75 0 0 0-.957.957l2.122 6.01a.75.75 0 0 0 1.237.281l1.238-1.237 1.414 1.414a.75.75 0 0 0 1.06 0l.354-.354a.75.75 0 0 0 0-1.06l-1.414-1.414 1.237-1.238a.75.75 0 0 0-.28-1.237l-6.01-2.122Z" fill="#000"/></svg>
